public/topics/41.svg

<svg width="250" height="250" viewBox="0 0 250 250" fill="none" xmlns="http://www.w3.org/2000/svg">
<rect width="250" height="250" rx="30" fill="#FF496C"/>
<path d="M66.2 75C66.2 81.5333 65 89.1333 62.6 97.8C60.3333 106.333 57 116.867 52.6 129.4L48 143.2C50.2667 143.6 52.6 143.8 55 143.8C59.1333 143.8 65.3333 143.4 73.6 142.6C81.8667 141.8 87.8 141.4 91.4 141.4L91.2 119.4C90.9333 104.2 90.8 93 90.8 85.8C90.8 76.3333 93.9333 71.6 100.2 71.6C105.133 71.6 108.267 72.8667 109.6 75.4C111.067 77.9333 111.8 81.7333 111.8 86.8C111.8 92 111.4 100.067 110.6 111C110.467 113.133 110.267 116.667 110 121.6C109.733 126.533 109.6 130.8 109.6 134.4L109.8 140.8L113.8 140.6C117 140.333 119.467 140.2 121.2 140.2C124.4 140.2 127.467 141.267 130.4 143.4C133.333 145.4 134.8 147.8 134.8 150.6C134.8 153.933 134.267 156.533 133.2 158.4C132.267 160.267 131.133 161.2 129.8 161.2C127.533 161.2 124.667 160.933 121.2 160.4C120.4 160.4 119.2 160.333 117.6 160.2C116 159.933 114.467 159.8 113 159.8L109.6 160L109.8 187C109.8 189.8 108.867 191.933 107 193.4C105.133 194.867 103 195.6 100.6 195.6C97.6667 195.6 95.0667 194.667 92.8 192.8C90.5333 190.933 89.4 188.6 89.4 185.8C89.4 176.867 89.5333 169.867 89.8 164.8C89.9333 163.6 90 162.133 90 160.4C86 160.267 79.0667 160.733 69.2 161.8C59.8667 162.867 52.8 163.4 48 163.4C41.8667 163.4 36.6667 162.533 32.4 160.8C28.2667 159.067 26.2 156.333 26.2 152.6C26.2 149 26.9333 144.6 28.4 139.4C29.8667 134.2 32.0667 127.2 35 118.4C36.3333 114.933 37.3333 112.067 38 109.8C40.4 103 42.2 97.2667 43.4 92.6C44.6 87.8 45.9333 82 47.4 75.2C47.9333 73.0667 49.0667 71.4667 50.8 70.4C52.5333 69.3333 54.5333 68.8 56.8 68.8C59.2 68.8 61.3333 69.4 63.2 70.6C65.2 71.6667 66.2 73.1333 66.2 75ZM201.717 89.8C200.384 115.933 199.717 136.733 199.717 152.2C199.717 160.2 199.917 167.8 200.317 175C201.384 175.8 203.451 176.2 206.517 176.2L211.117 176C212.984 175.733 214.717 175.6 216.317 175.6C219.784 175.6 222.451 176.2 224.317 177.4C226.317 178.6 227.317 180.933 227.317 184.4C227.317 187.733 226.317 190.333 224.317 192.2C222.451 194.067 218.517 195 212.517 195C207.451 195 201.317 194.6 194.117 193.8C192.384 193.667 190.717 193.533 189.117 193.4C187.517 193.267 186.051 193.2 184.717 193.2C177.384 193.333 171.917 193.6 168.317 194C164.717 194.4 160.651 194.6 156.117 194.6C151.984 194.6 149.917 191.467 149.917 185.2C149.917 179.2 153.784 176.2 161.517 176.2C162.717 176.2 164.651 176.333 167.317 176.6C169.584 177 171.984 177.2 174.517 177.2C175.984 177.2 177.184 177.133 178.117 177C178.251 168.067 178.717 155.067 179.517 138C180.317 118 180.717 103.2 180.717 93.6C180.051 93.7333 177.717 94.6667 173.717 96.4C167.584 99.4667 163.051 101 160.117 101C158.517 101 157.051 100.2 155.717 98.6C154.384 96.8667 153.717 94.8667 153.717 92.6C153.717 90.3333 155.117 88.1333 157.917 86C160.717 83.8667 165.251 81.0667 171.517 77.6C174.984 75.8667 178.317 73.9333 181.517 71.8C182.317 71.2667 183.451 70.7333 184.917 70.2C186.517 69.6667 187.717 69.4 188.517 69.4C191.984 69.4 195.117 70.1333 197.917 71.6C200.851 72.9333 202.317 74.7333 202.317 77L201.717 89.8Z" fill="white"/>
</svg>

<svg xmlns="http://www.w3.org/2000/svg" width="250" height="250" fill="none" viewBox="0 0 250 250"><rect width="250" height="250" fill="#ff496c" rx="30"/><path fill="#fff" d="M66.2 75q0 9.8-3.6 22.8-3.4 12.8-10 31.6L48 143.2q3.4.6 7 .6 6.2 0 18.6-1.2t17.8-1.2l-.2-22q-.4-22.8-.4-33.6 0-14.2 9.4-14.2 7.4 0 9.4 3.8 2.2 3.8 2.2 11.4 0 7.8-1.2 24.2-.2 3.2-.6 10.6t-.4 12.8l.2 6.4 4-.2q4.8-.4 7.4-.4 4.8 0 9.2 3.2 4.4 3 4.4 7.2 0 5-1.6 7.8-1.4 2.8-3.4 2.8-3.4 0-8.6-.8-1.2 0-3.6-.2-2.4-.4-4.6-.4l-3.4.2.2 27q0 4.2-2.8 6.4t-6.4 2.2q-4.4 0-7.8-2.8t-3.4-7q0-13.4.4-21 .2-1.8.2-4.4-6-.2-20.8 1.4-14 1.6-21.2 1.6-9.2 0-15.6-2.6-6.2-2.6-6.2-8.2 0-5.4 2.2-13.2t6.6-21q2-5.2 3-8.6 3.6-10.2 5.4-17.2 1.8-7.2 4-17.4.8-3.2 3.4-4.8t6-1.6q3.6 0 6.4 1.8 3 1.6 3 4.4m135.517 14.8q-2 39.2-2 62.4 0 12 .6 22.8 1.6 1.2 6.2 1.2l4.6-.2q2.8-.4 5.2-.4 5.2 0 8 1.8 3 1.8 3 7 0 5-3 7.8-2.8 2.8-11.8 2.8-7.6 0-18.4-1.2a790 790 0 0 1-5-.4q-2.4-.2-4.4-.2-11 .2-16.4.8t-12.2.6q-6.2 0-6.2-9.4 0-9 11.6-9 1.8 0 5.8.4 3.4.6 7.2.6 2.2 0 3.6-.2.2-13.4 1.4-39 1.2-30 1.2-44.4-1 .2-7 2.8-9.2 4.6-13.6 4.6-2.4 0-4.4-2.4-2-2.6-2-6t4.2-6.6 13.6-8.4a93 93 0 0 0 10-5.8q1.2-.8 3.4-1.6 2.4-.8 3.6-.8 5.2 0 9.4 2.2 4.4 2 4.4 5.4z"/></svg>
